X: 54
T:Riding on a Hand-Car Jig
M:6/8
L:1/8
Z:abc by Bruce Osborne - bosborne@kos.net
K:G
D|GBB BAG|Bdd dBG|cee dBG|BAA A2 B|!
GBB BAG|Bdd dBG|cee dBA|BGG G2:|!
|:d|gfg afd|efg d2 B|cee dBG|BAA A2 d|!
gab afd|efg dBG|cee dBA|BGG G2:|!
